X: 1
T: Tina Lech's
M: 2/4
L: 1/8
R: polka
K: Amaj
A2 AE | FA E2 | FB BA/2B/2 | cB cB |
A2 AE | FA E2 | FB BA/2B/2 |1 cA GB :|2 cA Af ||
e>f ec | Af fe | Bf Bf | g2 gf |
cg cg | a2 af | ec BA/2B/2 |1 cA Af :|2 cA GB |]
